X: 39308
T: Taladh Chriosd
R: waltz
M: 3/4
K: Dmixolydian
d4 e2|f4 g2|a4 g2|d6|
[1 f4 d2|e4 a2|g4 d2|c6:|2 d4 A2|c4 d2|e4 d2|d6||
|:B6|A4 d2|G4 F2|E6|B,4 ^C2|D4 ^C2|B,4 A,2|A,6:|

